X: 148
T: No_230_The_Opossum_Dies.krn
N: Derived from No_230_The_Opossum_Dies.krn
%%abc-version 2.0
%%abcx-abcm2ps-target-version 5.9.1 (29 Sep 2008)
%%abc-creator hum2abc beta
%%abcx-conversion-date 2019/03/15 08:38:45
%%humdrum-veritas 1765207775
%%humdrum-veritas-data 2910951822
%%linebreak <none>
%%barnumbers 0
L: 1/4
M: 3/4
K: C clef=bass
[K:clef=bass][M:3/4]z2A, ]|:  
G,2A, | 
G,2G, | 
E,2F, ||  
[M:2/4]E,z ||  
[M:3/4]C,/C,/ C,/ z/z ||  
[M:2/4]C,/C,/ C,/ z/ ||  
[M:3/4]G,2F, ||  
[M:2/4]E,//E,3//z ||  
[M:3/4]!accent!C,2z ||  
[M:2/4]!accent!C,3/z/ ||  
[M:3/4]E,2E,/C,/ ||  
[M:2/4]E,z ||  
[M:3/4]C,2C,/G,,/ | 
C,zA, [I:setbarnb 16]:|]  
C,z2 |]  



